F[BALLADE
CUT[Der heimkehrende Soldat
    Soldat zog aus dem Kriege, kuckuck.]
CNR[Er kam ganz nacket, zerrissen daher,]
REG[Osteuropa, Ungarn]
SRC[5, S. 159
    ????]
KEY[Q0103C 08  G 3/4]
MEL[-5_  1__-5_  1__-5_  1__2_  3__2_  1__
    3_  3__5_  5_.45_  5_5_2_  4__
    3_  3__2_  2__6_  6__5_  5__4_  3__ //] >>
FCT[Ballade, Ehe, Betrug]
CMT[Anhaengsel an der ersten und dritten Zeile.]
